X:1
T: L'Air Mignonne 
L:1/8
Q:1/4=120
M:4/4
K:A
EAB| c>c ce cB AB | c>c ce cB AB | F3 A E3 c | BA GA BE AB | 
c>c ce cB AB | c>c ce cB AB | F3 A E3 c |BA GB AB ce || 
f>f fa fe ce | f>f fa fe cA | F3 A E3 c | BA GA BE ce | 
f>f fa fe ce | f>f fa fe cA | F3 A E3 c | BA GB AE AB||

